assets/svgs/windows.svg

<svg xmlns="http://www.w3.org/2000/svg" viewBox="0 0 24 24">
  <path
    d="M0 12v-8.646l10-1.355v10.001h-10zm11 0h13v-12l-13 1.807v10.193zm-1 1h-10v7.646l10 1.355v-9.001zm1 0v9.194l13 1.806v-11h-13z" />
</svg>

<svg xmlns="http://www.w3.org/2000/svg" viewBox="0 0 24 24"><path d="M0 12V3.354l10-1.355V12H0zm11 0h13V0L11 1.807V12zm-1 1H0v7.646l10 1.355V13zm1 0v9.194L24 24V13H11z"/></svg>
